X:1
T:L'absente
T:L'absente (Absence)
T:Cécile Chaminade
T:Edouard Guinard (trans. Dr. Th. Baker)
T:OpenScore (CC0)
T:OpenScore (CC0)
T:OpenScore (CC0)
T:OpenScore (CC0)
T:OpenScore (CC0)
T:OpenScore (CC0)
T:OpenScore (CC0)
T:OpenScore (CC0)
T:OpenScore (CC0)
T:OpenScore (CC0)
T:OpenScore (CC0)
T:OpenScore (CC0)
T:OpenScore (CC0)
C:Cécile Chaminade
Z:Edouard Guinard
Z:OpenScore (CC0)
%%score ( 1 2 ) { ( 3 4 ) | ( 5 6 ) }
L:1/8
Q:3/8=104
M:2/4
K:Bb
V:1 treble nm="Voice"
V:2 treble 
V:3 treble nm="Piano"
V:4 treble 
V:5 bass 
V:6 bass 
V:1
"^Allegro agitato" z4 | z4 | z4 | z4 | z4 | z4 | z4 | z4 | z4 | z4 | z4 | %11
w: |||||||||||
w: |||||||||||
[M:6/8]"^agitato" F3 G A B | c2 d c2 c |"^cresc." F3 G A B | d2 e d3 |!f! d d (d d) c B | %16
w: Vois le vent chas-|sant la nu- e;|Vois l'oi- seau tra-|ver- sant l'air;|Vois l'é- toi- le che- ve-|
w: See clouds that the|wind o'er- chas- es,|See how the bird|cleaves the air,|See yon- der star as it|
!>(! f3-!>)! f2 z2/3 |!mf! c c c c B _A | e3- e2 z2/3 | %19
w: lu- e|Hâ- tant sa course in- con-|nu- e;|
w: blaz- es|Roam- ing thro' lim- it- less|spac- es,|
!f!"^rit."[Q:1/4=92]"^T" ^d[Q:1/4=80]"^T" =B[Q:1/4=70]"^T" ^G ^A ^c3/2 B/ | %20
w: Vois au ciel pas- ser l'é-|
w: See the swift light- ning's fell|
[Q:1/4=104]"_a tempo"[Q:1/4=104]"^a tempo" =B3 z4/3 z2/3 | z4 | z4 | %23
w: clair.|||
w: glare.|||
"^dolce poco rit." (2:3:2z2/3[Q:1/4=90]"^T" _B[Q:1/4=80]"^T" (2:3:2B B | %24
w: Et ce- pen-|
w: And yet so|
[M:2/4][Q:1/4=60]"^a tempo"[Q:1/4=104]"_a tempo" B2 A B | (AG) z"^cresc." F | B2 A B | _A _G F2 | %28
w: dant si pres-|sé- e Que|l'ai- le‿ou la|fou- dre soit,|
w: care- less to|tire _ As|light- ning or|wing may be,|
!f! d2 (cd) |!>(! c B A G!>)! |"^dolce  poco rit." (^F{F)}[Q:1/4=90]"^T" G[Q:1/4=80]"^T" A A | %31
w: Quand mes _|yeux, ma fi- an-|cée, Ne te voient|
w: When thee to|whom my thoughts a-|spire I see no|
[Q:1/4=104]"_a tempo"[Q:1/4=104]"^a tempo" A4 |"^cresc." d2 (cd) | (cB) z2 |"^cresc." e2 d e | %35
w: plus,|ma pen- *|sé- e|Vo- le plus|
w: more,|my de- *|sire _|Flies yet more|
 (d ^c) z2 |!f! f2 _e f | (ed) c G[Q:1/4=100]"^T" | %38
w: vi- te|Vo- le plus|vi- * te, plus|
w: swift- ly|flies yet more|swift- * ly, more|
"^slargando"[Q:1/4=95]"^T" B2[Q:1/4=85]"^T" A[Q:1/4=80]"^T" B[Q:1/4=90]"^T" | %39
w: vi- te vers|
w: swift- ly to|
[Q:1/4=104]"^T" B2 z2 | z4 | z4 | z4 | z4 | z4 | z4 | z4 | z4 | z4 | z4 | z4 | z4 | z4 | z4 | %54
w: toi!|||||||||||||||
w: thee!|||||||||||||||
[M:6/8]"^agitato" F3 G A B | c2 d c2 c |"^cresc." F3 G A B | d2 e d3 |!f! d d d d c B | %59
w: Vois l'en- fant qui|de sa mè- re|À tout in- stant|suit les pas;|Vois là- bas le mur de|
w: See how e'er the|child fast hold- eth|Its moth- er in|ev- 'ry place,|See how the i- vy en-|
!>(! f3 f2 z2/3!>)! |!mf! c c c c B _A | (e3 e2) z2/3 | %62
w: pier- re|Qu'à ja- mais ce beau li-|er- re|
w: fold- eth|Yon- der rough wall as it|mould- eth,|
"^dolce poco rit."[Q:1/4=90]"^T" ^d[Q:1/4=80]"^T" =B ^G ^A ^c3/2 B/ | %63
w: En- tou- re de mil- le|
w: Cling- ing with fond- est em-|
[Q:1/4=104]"_a tempo"[Q:1/4=104]"^a tempo" =B3 z4/3 z2/3 | z4 | z4 | %66
w: bras.|||
w: brace.|||
[Q:1/4=90]"^T""^dolce poco rit." (2:3:2z2/3[Q:1/4=80]"^T" _B[Q:1/4=70]"^T" (2:3:2B B | %67
w: Et ce- pen-|
w: And as to|
[M:2/4][Q:1/4=104]"_a tempo"[Q:1/4=104]"^a tempo" B2 A B | (AG) z"^cresc." F | B2 A B | _A _G F2 | %71
w: dant si fix-|é- e Qu'à|tout ob- jet|l'om- bre soit,|
w: ev- 'ry thing|e'er _ Its|shad- ow may|con- stant be,|
!f! d2 (cd) | c B A G | %73
w: Quand mes _|yeux, ma fi- an-|
w: When thee to|whom my thoughts a-|
"^dolce  poco rit."[Q:1/4=90]"^T" (^F{F)}[Q:1/4=85]"^T" G[Q:1/4=80]"^T" A A | %74
w: cée, Ne te voient|
w: spire I see no|
[Q:1/4=104]"_a tempo"[Q:1/4=104]"^a tempo" A4 |"^cresc." d2 (cd) | c B z2 |"^cresc." e2 d e | %78
w: plus,|ma pen- *|sé- e|S'at- ta- che‿en-|
w: more,|my de- *|sire _|Clings yet more|
 (d^c) z2 |!f! f2 _e f | (ed) c B | g4- |[Q:1/4=80]"^rit." g (f2 b) |[Q:1/4=104]"_a tempo" b2 z2 | %84
w: cor _|S'at- ta- che‿en-|cor _ plus à|toi,|_ plus à|toi!|
w: close- ly,|clings yet more|close- * ly to|thee,|_ to _|thee!|
 z4 | z4 | z4 | z4 | z4 | z4 | z4 |] %91
w: |||||||
w: |||||||
V:2
 x4 | x4 | x4 | x4 | x4 | x4 | x4 | x4 | x4 | x4 | x4 |[M:6/8] x6 | x6 | x6 | x6 | x6 | x17/3 | %17
 x6 | x17/3 | x6 | x5 | x4 | x4 | x11/2 |[M:2/4] x4 | x4 | x4 | x4 | x2 c d | x4 | x4 | x4 | x4 | %33
 x4 | x4 | x4 | x4 | x4 | x4 | x4 | x4 | x4 | x4 | x4 | x4 | x4 | x4 | x4 | x4 | x4 | x4 | x4 | %52
 x4 | x4 |[M:6/8] x6 | x6 | x6 | x6 | x6 | x17/3 | x6 | x17/3 | x6 | x5 | x4 | x4 | x11/2 | %67
[M:2/4] x4 | x4 | x4 | x4 | x2 c d | x4 | x4 | x4 | x4 | (cB) x2 | x4 | d ^c x2 | x4 | x4 | x4 | %82
 x (A2 B) | B2 x2 | x4 | x4 | x4 | x4 | x4 | x4 | x4 |] %91
V:3
!f!"_col Pédale."!ped! !>!f2!ped-up!!ped! !>!e2!ped-up! |!ped! !>!c4!ped-up! | %2
!p!!ped! f'2!ped-up!!ped! e'2!ped-up! |!ped! c'4!ped-up! |!mf!!ped! !>!c4!ped-up! | %5
!f!!ped! !>!c4- | c4!ped-up! |!p!!ped! F4- | F4!ped-up! |!ped! F2 F2!ped-up! |!ped! F2 F2!ped-up! | %11
"^agitato" F2 F2 | F2 F2 |"_cresc." F2 G2 | ^F2 F2 |!f! B2 B2 | B2 A2 |!mf! _A2 A2 | G2 _G2 | %19
!f!"_rit." ^F2 F2 |!f! (3(^d=B^F (3^G^AB) | (3:2:2(!>!=B2 ^A (3B^c^d) | =e2"_dim." e2 |!p! =e2 e2 | %24
[M:2/4] f2 =e2 | _e2"_cresc." c2 | B2 B2 | B2 =A2 |!mf! F2 ^F2 |!>(! !>!G2 !>!B2!>)! | %30
!p! (d2 ^cd) | (^c=B AG) |"^cresc." ^F2 F2 | G2 G2 |"_cresc." _A2 A2 | =A2 A2 | !>!=B2 !>!c2 | %37
 !>!d2 !>!e2 | !>!_B2 !>!=A2 |!f! (!^!b2 !>!a!>!b | !>!a!>!g !>!f!>!d) |!p! (G/D/G/D/ G/D/G/D/) | %42
 (G/D/G/D/) (c/G/=E/C/) |!p! !>!f2 !>!e2 | !>!c4 | !>!f'2 e'2 | !>!c'4 |!mf! c4 |!f! c4- | c4 | %50
 F4- | F4 |!p! F2 F2 | F2 F2 |"^agitato" F2 F2 | F2 F2 |"_cresc." F2 G2 | ^F2 F2 |!f! B2 B2 | %59
 B2 A2 |!mf! _A2 A2 | G2 _G2 | ^F2 F2 |!f! (3(^d=B^F (3^G^AB) | (3:2:2(!>!=B2 ^A (3B^c^d) | %65
 =e2"_dim." e2 |!p! =e2 e2 |[M:2/4] f2 =e2 | _e2"_cresc." c2 | B2 B2 | B2 A2 |!mf! !>!F2 !>!^F2 | %72
 !>!G2 !>!B2 |!mf! (!>!d2 ^cd) | (^c=B AG) |"^cresc." ^F2 F2 | G2 G2 |"_cresc." _A2 A2 | =A2 A2 | %79
!f!"_cresc." !>!=B2 !>!c2 | !>!d2 !>!e2 |!ff! !>!=e4 | !^![FA_ef]4 |!ff! (!^!b2 ab | ag!f! fd) | %85
!p! (_A/D/A/D/ A/D/A/D/) | (_A/D/A/D/ A/D/A/D/) |!f! (B2 =AB | AG FD) | %89
 (!>!D/[I:staff +1]E,/A,/E,/)[I:staff -1] (!>!C/[I:staff +1]E,/A,/E,/) | %90
[I:staff -1] (!>!B,/[I:staff +1]D,/F,/B,,/[I:staff -1] z2) |] %91
V:4
 (6:4:6f/c/A/F/[I:staff +1]C/F,/[I:staff -1] (6:4:6e/B/G/E/[I:staff +1]G,/C,/ | %1
[I:staff -1] (6:4:6c/A/F/C/[I:staff +1]A,/C,/ !>!F,,2 | %2
[I:staff -1] (6:4:6f'/c'/a/f/[I:staff +1]c/F/[I:staff -1] (6:4:6e'/b/g/e/[I:staff +1]G/C/ | %3
[I:staff -1] (6:4:6c'/a/f/c/[I:staff +1]A/C/ F,2 | %4
[I:staff -1] (6:4:6c/A/F/C/[I:staff +1]A,/C,/ F,,2 | %5
[I:staff -1] (6:4:6c/B/=E/B,/[I:staff +1]_G,/_D,/ !>!_G,,2- | x4 | %7
[I:staff -1] (6:4:6F/_E/A,/F,/[I:staff +1]C,/F,,/ C,,2- | x4 | %9
[I:staff -1] (6:4:6F/D/B,/F,/[I:staff +1]B,,/F,,/[I:staff -1] (6:4:6F/D/B,/F,/[I:staff +1]B,,/F,,/ | %10
[I:staff -1] (6:4:6F/D/B,/F,/[I:staff +1]B,,/F,,/[I:staff -1] (6:4:6F/D/B,/F,/[I:staff +1]B,,/F,,/ | %11
[I:staff -1] (6:4:6F/D/B,/F,/[I:staff +1]B,,/F,,/[I:staff -1] (6:4:6F/E/B,/G,/[I:staff +1]B,,/F,,/ | %12
[I:staff -1] (6:4:6F/E/A,/F,/[I:staff +1]B,,/F,,/[I:staff -1] (6:4:6F/E/A,/F,/[I:staff +1]B,,/F,,/ | %13
[I:staff -1] (6:4:6F/D/B,/F,/[I:staff +1]B,,/F,,/[I:staff -1] (6:4:6G/E/B,/G,/[I:staff +1]B,,/E,,/ | %14
[I:staff -1] (6:4:6^F/D/A,/^F,/[I:staff +1]D,/A,,/[I:staff -1] (6:4:6F/D/A,/F,/[I:staff +1]D,/A,,/ | %15
[I:staff -1] (6:4:6B/G/D/B,/[I:staff +1]D,/G,,/[I:staff -1] (6:4:6B/G/=E/B,/[I:staff +1]C,/G,,/ | %16
[I:staff -1] (6:4:6B/F/D/B,/[I:staff +1]F,/B,,/[I:staff -1] (6:4:6A/F/C/A,/[I:staff +1]F,/C,/ | %17
[I:staff -1] (6:4:6_A/F/C/_A,/[I:staff +1]C,/F,,/[I:staff -1] (6:4:6A/F/D/A,/[I:staff +1]B,,/F,,/ | %18
[I:staff -1] (6:4:6G/E/B,/G,/[I:staff +1]E,/B,,/[I:staff -1] (6:4:6_G/E/B,/_G,/[I:staff +1]B,,/E,,/ | %19
[I:staff -1] (6:4:6^F/^D/=B,/^G,/[I:staff +1]^D,/=B,,/[I:staff -1] (6:4:6F/=E/^A,/^F,/[I:staff +1]^F,,/F,,,/ | %20
[I:staff -1] (6:4:6^d/^D/=B/D/^F/D/ (6:4:6^G/D/^A/D/B/D/ | %21
 (6:4:6=G/=E/G/E/G/E/ (6:4:6=B/E/^c/E/^d/E/ | %22
 (6:4:6=e/^c/^A/=E/[I:staff +1]^C/^A,/[I:staff -1] (6:4:6e/c/A/E/[I:staff +1]C/A,/ | %23
[I:staff -1] (6:4:6=e/^c/^A/=E/[I:staff +1]^C/^A,/[I:staff -1] (6:4:6e/c/A/E/[I:staff +1]C/A,/ | %24
[M:2/4][I:staff -1] (6:4:6=f/d/_B/F/[I:staff +1]D/_B,/[I:staff -1] (6:4:6=e/_d/B/G/[I:staff +1]_D/B,/ | %25
[I:staff -1](6:4:6x/B/G/E/[I:staff +1]B,/G,/[I:staff -1] (6:4:6c/A/F/C/[I:staff +1]A,/F,/ | %26
[I:staff -1] (6:4:6B/F/D/B,/[I:staff +1]F,/D,/[I:staff -1] (6:4:6B/_G/_D/B,/[I:staff +1]_G,/D,/ | %27
[I:staff -1] (6:4:6B/_G/E/B,/[I:staff +1]_G,/C,/[I:staff -1] (6:4:6A/F/E/A,/[I:staff +1]C,/F,,/ | %28
[I:staff -1] (6:4:6F/D/B,/F,/[I:staff +1]B,,/F,,/[I:staff -1] (6:4:6^F/D/B,/^F,/[I:staff +1]B,,/^F,,/ | %29
[I:staff -1] (6:4:6G/D/B,/G,/[I:staff +1]B,,/G,,/[I:staff -1] (6:4:6B/G/D/B,/[I:staff +1]B,,/B,,,/ | %30
[I:staff -1] d/A/^F/D/ ^c/D/d/D/ | G/^C/=B/C/ A/C/G/C/ | %32
 (6:4:6^F/D/A,/^F,/[I:staff +1]D,/A,,/[I:staff -1] (6:4:6F/D/A,/F,/[I:staff +1]D,/A,,/ | %33
[I:staff -1] (6:4:6G/D/B,/G,/[I:staff +1]D,/B,,/[I:staff -1] (6:4:6G/D/B,/G,/[I:staff +1]D,/B,,/ | %34
[I:staff -1] (6:4:6_A/E/C/_A,/[I:staff +1]E,/_A,,/[I:staff -1] (6:4:6A/E/C/A,/[I:staff +1]E,/A,,/ | %35
[I:staff -1] (6:4:6A/=E/^C/=A,/[I:staff +1]=E,/=A,,/[I:staff -1] (6:4:6A/E/C/A,/[I:staff +1]E,/A,,/ | %36
[I:staff -1] (6:4:6=B/_A/F/=B,/[I:staff +1]_A,/F,/[I:staff -1] (6:4:6c/A/F/C/[I:staff +1]A,/F,/ | %37
[I:staff -1] (6:4:6d/_A/F/D/[I:staff +1]_A,/F,/[I:staff -1] (6:4:6e/c/G/E/[I:staff +1]G,/C,/ | %38
[I:staff -1] (6:4:6B/G/E/B,/[I:staff +1]G,/C,/[I:staff -1] (6:4:6A/F/E/=A,/[I:staff +1]F,,/F,,,/ | %39
[I:staff -1] b/f/d/B/ a/B/b/B/ | a/B/g/B/ f/B/d/B/ | x4 | x4 | %43
 (6:4:6f/c/A/F/[I:staff +1]C/F,/[I:staff -1] (6:4:6e/B/G/E/[I:staff +1]G,/C,/ | %44
[I:staff -1] (6:4:6c/A/F/C/[I:staff +1]A,/C,/ F,,2 | %45
[I:staff -1] (6:4:6f'/c'/a/f/[I:staff +1]c/F/[I:staff -1] (6:4:6e'/b/g/e/[I:staff +1]G/C/ | %46
[I:staff -1] (6:4:6c'/a/f/c/[I:staff +1]A/C/ F,2 | %47
[I:staff -1] (6:4:6c/A/F/C/[I:staff +1]A,/C,/ F,,2 | %48
[I:staff -1] (6:4:6c/B/=E/B,/[I:staff +1]_G,/_D,/ _G,,2- | x4 | %50
[I:staff -1] (6:4:6F/_E/A,/F,/[I:staff +1]C,/F,,/ C,,2- | x4 | %52
[I:staff -1] (6:4:6F/D/B,/F,/[I:staff +1]B,,/F,,/[I:staff -1] (6:4:6F/D/B,/F,/[I:staff +1]B,,/F,,/ | %53
[I:staff -1] (6:4:6F/D/B,/F,/[I:staff +1]B,,/F,,/[I:staff -1] (6:4:6F/D/B,/F,/[I:staff +1]B,,/F,,/ | %54
[I:staff -1] (6:4:6F/D/B,/F,/[I:staff +1]B,,/F,,/[I:staff -1] (6:4:6F/E/B,/G,/[I:staff +1]B,,/F,,/ | %55
[I:staff -1] (6:4:6F/E/A,/F,/[I:staff +1]B,,/F,,/[I:staff -1] (6:4:6F/E/A,/F,/[I:staff +1]B,,/F,,/ | %56
[I:staff -1] (6:4:6F/D/B,/F,/[I:staff +1]B,,/F,,/[I:staff -1] (6:4:6G/E/B,/G,/[I:staff +1]E,/B,,/ | %57
[I:staff -1] (6:4:6^F/D/A,/^F,/[I:staff +1]D,/A,,/[I:staff -1] (6:4:6F/D/A,/F,/[I:staff +1]D,/A,,/ | %58
[I:staff -1] (6:4:6B/G/D/B,/[I:staff +1]D,/G,,/[I:staff -1] (6:4:6B/G/=E/B,/[I:staff +1]C,/G,,/ | %59
[I:staff -1] (6:4:6B/F/D/B,/[I:staff +1]F,/B,,/[I:staff -1] (6:4:6A/F/C/A,/[I:staff +1]F,/C,/ | %60
[I:staff -1] (6:4:6_A/F/C/_A,/[I:staff +1]C,/F,,/[I:staff -1] (6:4:6A/F/D/A,/[I:staff +1]B,,/F,,/ | %61
[I:staff -1] (6:4:6G/E/B,/G,/[I:staff +1]E,/B,,/[I:staff -1] (6:4:6_G/E/B,/_G,/[I:staff +1]B,,/E,,/ | %62
[I:staff -1] (6:4:6^F/^D/=B,/^G,/[I:staff +1]^D,/=B,,/[I:staff -1] (6:4:6F/=E/^A,/^F,/[I:staff +1]^F,,/F,,,/ | %63
[I:staff -1] (6:4:6^d/^D/=B/D/^F/D/ (6:4:6^G/D/^A/D/B/D/ | %64
 (6:4:6=G/=E/G/E/G/E/ (6:4:6=B/E/^c/E/^d/E/ | %65
 (6:4:6=e/^c/^A/=E/[I:staff +1]^C/^A,/[I:staff -1] (6:4:6e/c/A/E/[I:staff +1]C/A,/ | %66
[I:staff -1] (6:4:6=e/^c/^A/=E/[I:staff +1]^C/^A,/[I:staff -1] (6:4:6e/c/A/E/[I:staff +1]C/A,/ | %67
[M:2/4][I:staff -1] (6:4:6f/d/B/F/[I:staff +1]D/B,/[I:staff -1] (6:4:6=e/_d/B/G/[I:staff +1]_D/B,/ | %68
[I:staff -1](6:4:6x/B/G/_E/[I:staff +1]B,/G,/[I:staff -1] (6:4:6c/A/F/C/[I:staff +1]A,/F,/ | %69
[I:staff -1] (6:4:6B/F/D/B,/[I:staff +1]F,/D,/[I:staff -1] (6:4:6B/_G/_D/B,/[I:staff +1]_G,/D,/ | %70
[I:staff -1] (6:4:6B/_G/E/B,/[I:staff +1]_G,/C,/[I:staff -1] (6:4:6A/F/E/A,/[I:staff +1]C,/F,,/ | %71
[I:staff -1] (6:4:6F/D/B,/F,/[I:staff +1]B,,/F,,/[I:staff -1] (6:4:6^F/D/B,/^F,/[I:staff +1]B,,/^F,,/ | %72
[I:staff -1] (6:4:6G/D/B,/G,/[I:staff +1]B,,/G,,/[I:staff -1] (6:4:6B/G/D/B,/[I:staff +1]B,,/B,,,/ | %73
[I:staff -1] d/A/^F/D/ ^c/D/d/D/ | G/^C/=B/C/ A/C/G/C/ | %75
 (6:4:6^F/D/A,/^F,/[I:staff +1]D,/A,,/[I:staff -1] (6:4:6F/D/A,/F,/[I:staff +1]D,/A,,/ | %76
[I:staff -1] (6:4:6G/D/B,/G,/[I:staff +1]D,/B,,/[I:staff -1] (6:4:6G/D/B,/G,/[I:staff +1]D,/B,,/ | %77
[I:staff -1] (6:4:6_A/E/C/_A,/[I:staff +1]E,/_A,,/[I:staff -1] (6:4:6A/E/C/A,/[I:staff +1]E,/A,,/ | %78
[I:staff -1] (6:4:6A/=E/^C/=A,/[I:staff +1]=E,/=A,,/[I:staff -1] (6:4:6A/E/C/A,/[I:staff +1]E,/A,,/ | %79
[I:staff -1] (6:4:6=B/_A/F/=B,/[I:staff +1]_A,/F,/[I:staff -1] (6:4:6c/A/F/C/[I:staff +1]A,/F,/ | %80
[I:staff -1] (6:4:6d/_A/F/D/[I:staff +1]_A,/F,/[I:staff -1] (6:4:6e/c/G/E/[I:staff +1]G,/C,/ | %81
[I:staff -1] (6:4:6=e/_d/B/=E/[I:staff +1]_D/B,/ G,2 | x4 |[I:staff -1] b/f/d/B/ a/B/b/B/ | %84
 a/B/g/B/ f/B/d/B/ | x4 | x4 | B/B,/E/B,/ A/B,/B/B,/ | E/B,/E/B,/ F/=B,/D/B,/ | D2 C2 | B,2 x2 |] %91
V:5
 x4 | x4 | (3x x[K:treble] x x2 | x2[K:bass] x2 | x4 | x4 | G,,4 | x4 | C,,4 | B,,,2 B,,,2 | %10
 B,,,2 B,,,2 | B,,,2 B,,,2 | B,,,2 B,,,2 | B,,,2 E,,2 | !>!D,,2 !>!D,,2 | !>!G,,2 !>!C,,2 | %16
 !>!F,,2 F,,2 | F,,2 B,,,2 | E,,2 E,,2 | ^F,,,2 ^F,,2 | (3:2:2=B,,,2 ^F, (3^G,^A,=B, | %21
 !>!^C2 (3=B,^A,^G, | !>!=G,2 G,2 |"^rit." ^F,2 F,2 |[M:2/4] =F,2 F,2 | F,2 E,2 | D,2 _D,2 | %27
 C,2 F,,2 | B,,,2 B,,,2 | B,,,2 B,,,2 |"^dolce  poco rit." z2 ^F,2 | [A,,=E,]4 | D,,2 D,,2 | %33
 D,,2 D,,2 | D,,2 D,,2 | D,,2 D,,2 | !>!D,2 !>!C,2 | !>!=B,,2 !>!C,2 | %38
"^slargando" !>!F,,2 !>!F,,2 |"^con fuoco" z2 [F,D]2- | [F,D] !>!F, !>!F!>!D |!f! !>!C2 !>!B,!>!C | %42
"^dim." (B,A, [C,G,]2) | F,,2 C,2 | x4 | (3x x[K:treble] x x2 | x2[K:bass] x2 | x4 | x4 | G,,4 | %50
 x4 | C,,4 | B,,,2 B,,,2 | B,,,2 B,,,2 | B,,,2 B,,,2 | B,,,2 B,,,2 | B,,,2 E,,2 | D,,2 D,,2 | %58
 !>!G,,2 !>!C,,2 | !>!F,,2 F,,2 | F,,2 B,,,2 | E,,2 E,,2 |"^dolce poco rit." [^F,,,^F,,]2 F,,2 | %63
 (3:2:2!>!=B,,,2 ^F, (3^G,^A,=B, | ^C2 (3=B,^A,^G, | =G,2 G,2 |"^rit." ^F,2 F,2 |[M:2/4] =F,2 F,2 | %68
 F,2 E,2 | D,2 _D,2 | C,2 F,,2 | B,,,2 B,,,2 | B,,,2 B,,,2 |"^dolce  poco rit." z2 ^F,2 | %74
 [A,,=E,]4 | D,,2 D,,2 | D,,2 D,,2 | D,,2 D,,2 | D,,2 D,,2 | !>!D,2 !>!C,2 | !>!=B,,2 !>!C,2 | %81
 !>!F,,4 |"^rit." !^![F,,,F,,]4 | z2 [F,D]2- | [F,D] !>!F, !>!F!>!D |!f! !>!C2 !>!B,!>!C | %86
 !>!B,!>!A, !>!F,!>!B,, |"^sempre tutta forza" G,4 | (G,2 ^G,2) | !^!A,2 !^!F,,2 | %90
 !^!B,,2 !^![B,,,,B,,,]2 |] %91
V:6
 x4 | x4 | x4/3[K:treble] x8/3 | x2[K:bass] x2 | x4 | x4 | x4 | x4 | x4 | x4 | x4 | x4 | x4 | x4 | %14
 x4 | x4 | x4 | x4 | x4 | x4 | x4 | x4 | x4 | x4 |[M:2/4] x4 | x4 | x4 | x4 | x4 | x4 | !^!A,,,4 | %31
 x4 | x4 | x4 | x4 | x4 | x4 | x4 | x4 | [B,,,B,,]4 | x4 | G,4 | x4 | x4 | x4 | %45
 x4/3[K:treble] x8/3 | x2[K:bass] x2 | x4 | x4 | x4 | x4 | x4 | x4 | x4 | x4 | x4 | x4 | x4 | x4 | %59
 x4 | x4 | x4 | x4 | x4 | x4 | x4 | x4 |[M:2/4] x4 | x4 | x4 | x4 | x4 | x4 | !>!A,,,4 | x4 | x4 | %76
 x4 | x4 | x4 | x4 | x4 | x4 | x4 | [B,,,B,,]4 | x4 | x4 | x4 | x4 | C,4 | x4 | x4 |] %91

